X: 29
T:Cloch na Ceithre Mhile
M:C|
L:1/8
C:Arthur Darley
S:Mairead Mhaonaigh etc. (Ceol Aduaidh)
R:Reel
B:The Four Mile Stone
H:1999-11-23 02:40:59 UT
Z:http://home.istar.ca/~rickerc/tunes/net2.abc
K:C
~A,2 EA, ~A,2 EA, | ~A,2 GE DB,A,B, | G,2 (3B,A,G, DG,B,A, | G,B, (3BBB,
 G,B,DB, |!
~A,2 EA, ~A,2 AB | (3BBA BG AGAB | (3BBA BG AGEA |  GEDB, G,A,A,G, :|!
(3A,EA BA eABA | A,E (3EEE D2 B,G, | (3B,A,G, DG, EG,D2 | (3ded (3BdB (3
GAG DA, |!
(3B,DE AA AB (3cde | AGED E2 AB | (3BBA BG AGEA | GEDB, G,A,A,G, :|!

